(Project drawing)
(Created by Estlcam version 11 build 11.235)
(Machining time about 00:00:23 hours)

(Required tools:)
(Drag Knife)

G64 P0.01

G90
M03 S24000
G00 Z2.0000


(No. 1: Engraving 1)
G00 X0.0000 Y0.0000 Z2.0000
G00 X0.0000 Y0.0000 Z0.5000
G01 X0.0000 Y0.0000 Z0.0000 F600
G01 X0.0000 Y0.0000 Z-0.5800 F600
G01 X0.0000 Y49.2651 Z-0.5800 F1800
G01 X49.2651 Y49.2651 Z-0.5800 F1800
G01 X49.2651 Y0.0000 Z-0.5800 F1800
G01 X0.0000 Y0.0000 Z-0.5800 F1800
G00 X0.0000 Y0.0000 Z2.0000 F1800


(No. 2: Engraving 1)
G00 X51.0000 Y0.0000 Z2.0000 F1800
G00 X51.0000 Y0.0000 Z0.5000 F1800
G01 X51.0000 Y0.0000 Z0.0000 F600
G01 X51.0000 Y0.0000 Z-0.5800 F600
G01 X51.0000 Y49.2651 Z-0.5800 F1800
G01 X100.2651 Y49.2651 Z-0.5800 F1800
G01 X100.2651 Y0.0000 Z-0.5800 F1800
G01 X51.0000 Y0.0000 Z-0.5800 F1800
G00 X51.0000 Y0.0000 Z2.0000 F1800
G00 X0.0000 Y0.0000 Z2.0000 F1800

M05
M30
