(Project drawing)
(Created by Estlcam version 11 build 11.235)
(Machining time about 00:00:36 hours)

(Required tools:)
(Drag Knife)

G64 P0.01

G90
M03 S24000
G00 Z2.0000


(No. 1: Engraving 13)
G00 X0.0000 Y0.8999 Z2.0000
G00 X0.0000 Y0.8999 Z0.5000
G01 X0.0000 Y0.8999 Z0.0000 F600
G01 X0.0000 Y0.8999 Z-0.5800 F600
G01 X0.9500 Y0.8999 Z-0.5800 F1800
G01 X0.9500 Y0.0000 Z-0.5800 F1800
G01 X0.0000 Y0.0000 Z-0.5800 F1800
G01 X0.0000 Y0.8999 Z-0.5800 F1800
G00 X0.0000 Y0.8999 Z2.0000 F1800


(No. 2: Engraving 12)
G00 X0.0000 Y1.5502 Z2.0000 F1800
G00 X0.0000 Y1.5502 Z0.5000 F1800
G01 X0.0000 Y1.5502 Z0.0000 F600
G01 X0.0000 Y1.5502 Z-0.5800 F600
G01 X0.0000 Y2.4501 Z-0.5800 F1800
G01 X0.9500 Y2.4501 Z-0.5800 F1800
G01 X0.9500 Y1.5502 Z-0.5800 F1800
G01 X0.0000 Y1.5502 Z-0.5800 F1800
G00 X0.0000 Y1.5502 Z2.0000 F1800


(No. 3: Engraving 56)
G00 X0.9500 Y3.9479 Z2.0000 F1800
G00 X0.9500 Y3.9479 Z0.5000 F1800
G01 X0.9500 Y3.9479 Z0.0000 F600
G01 X0.9500 Y3.9479 Z-0.5800 F600
G01 X0.9500 Y3.0480 Z-0.5800 F1800
G01 X0.0000 Y3.0480 Z-0.5800 F1800
G01 X0.0000 Y3.9479 Z-0.5800 F1800
G01 X0.9500 Y3.9479 Z-0.5800 F1800
G00 X0.9500 Y3.9479 Z2.0000 F1800


(No. 4: Engraving 57)
G00 X0.9500 Y4.5982 Z2.0000 F1800
G00 X0.9500 Y4.5982 Z0.5000 F1800
G01 X0.9500 Y4.5982 Z0.0000 F600
G01 X0.9500 Y4.5982 Z-0.5800 F600
G01 X0.0000 Y4.5982 Z-0.5800 F1800
G01 X0.0000 Y5.4981 Z-0.5800 F1800
G01 X0.9500 Y5.4981 Z-0.5800 F1800
G01 X0.9500 Y4.5982 Z-0.5800 F1800
G00 X0.9500 Y4.5982 Z2.0000 F1800


(No. 5: Engraving 3)
G00 X3.6754 Y8.4960 Z2.0000 F1800
G00 X3.6754 Y8.4960 Z0.5000 F1800
G01 X3.6754 Y8.4960 Z0.0000 F600
G01 X3.6754 Y8.4960 Z-0.5800 F600
G01 X0.6754 Y8.4960 Z-0.5800 F1800
G01 X0.6754 Y10.0960 Z-0.5800 F1800
G01 X3.6754 Y10.0960 Z-0.5800 F1800
G01 X3.6754 Y8.4960 Z-0.5800 F1800
G00 X3.6754 Y8.4960 Z2.0000 F1800


(No. 6: Engraving 64)
G00 X5.6495 Y9.3200 Z2.0000 F1800
G00 X5.6495 Y9.3200 Z0.5000 F1800
G01 X5.6495 Y9.3200 Z0.0000 F600
G01 X5.6495 Y9.3200 Z-0.5800 F600
G01 X6.5494 Y9.3200 Z-0.5800 F1800
G01 X6.5494 Y8.3701 Z-0.5800 F1800
G01 X5.6495 Y8.3701 Z-0.5800 F1800
G01 X5.6495 Y9.3200 Z-0.5800 F1800
G00 X5.6495 Y9.3200 Z2.0000 F1800


(No. 7: Engraving 63)
G00 X7.1994 Y9.3200 Z2.0000 F1800
G00 X7.1994 Y9.3200 Z0.5000 F1800
G01 X7.1994 Y9.3200 Z0.0000 F600
G01 X7.1994 Y9.3200 Z-0.5800 F600
G01 X8.0996 Y9.3200 Z-0.5800 F1800
G01 X8.0996 Y8.3701 Z-0.5800 F1800
G01 X7.1994 Y8.3701 Z-0.5800 F1800
G01 X7.1994 Y9.3200 Z-0.5800 F1800
G00 X7.1994 Y9.3200 Z2.0000 F1800


(No. 8: Engraving 7)
G00 X6.7874 Y10.7351 Z2.0000 F1800
G00 X6.7874 Y10.7351 Z0.5000 F1800
G01 X6.7874 Y10.7351 Z0.0000 F600
G01 X6.7874 Y10.7351 Z-0.5800 F600
G01 X7.9375 Y10.7351 Z-0.5800 F1800
G01 X7.9375 Y10.1351 Z-0.5800 F1800
G01 X6.7874 Y10.1351 Z-0.5800 F1800
G01 X6.7874 Y10.7351 Z-0.5800 F1800
G00 X6.7874 Y10.7351 Z2.0000 F1800


(No. 9: Engraving 8)
G00 X6.7874 Y11.6850 Z2.0000 F1800
G00 X6.7874 Y11.6850 Z0.5000 F1800
G01 X6.7874 Y11.6850 Z0.0000 F600
G01 X6.7874 Y11.6850 Z-0.5800 F600
G01 X7.9375 Y11.6850 Z-0.5800 F1800
G01 X7.9375 Y11.0851 Z-0.5800 F1800
G01 X6.7874 Y11.0851 Z-0.5800 F1800
G01 X6.7874 Y11.6850 Z-0.5800 F1800
G00 X6.7874 Y11.6850 Z2.0000 F1800


(No. 10: Engraving 9)
G00 X6.7874 Y12.6350 Z2.0000 F1800
G00 X6.7874 Y12.6350 Z0.5000 F1800
G01 X6.7874 Y12.6350 Z0.0000 F600
G01 X6.7874 Y12.6350 Z-0.5800 F600
G01 X7.9375 Y12.6350 Z-0.5800 F1800
G01 X7.9375 Y12.0350 Z-0.5800 F1800
G01 X6.7874 Y12.0350 Z-0.5800 F1800
G01 X6.7874 Y12.6350 Z-0.5800 F1800
G00 X6.7874 Y12.6350 Z2.0000 F1800


(No. 11: Engraving 2)
G00 X6.1834 Y13.4501 Z2.0000 F1800
G00 X6.1834 Y13.4501 Z0.5000 F1800
G01 X6.1834 Y13.4501 Z0.0000 F600
G01 X6.1834 Y13.4501 Z-0.5800 F600
G01 X6.1834 Y14.4000 Z-0.5800 F1800
G01 X7.0836 Y14.4000 Z-0.5800 F1800
G01 X7.0836 Y13.4501 Z-0.5800 F1800
G01 X6.1834 Y13.4501 Z-0.5800 F1800
G00 X6.1834 Y13.4501 Z2.0000 F1800


(No. 12: Engraving 1)
G00 X4.6335 Y13.4501 Z2.0000 F1800
G00 X4.6335 Y13.4501 Z0.5000 F1800
G01 X4.6335 Y13.4501 Z0.0000 F600
G01 X4.6335 Y13.4501 Z-0.5800 F600
G01 X4.6335 Y14.4000 Z-0.5800 F1800
G01 X5.5334 Y14.4000 Z-0.5800 F1800
G01 X5.5334 Y13.4501 Z-0.5800 F1800
G01 X4.6335 Y13.4501 Z-0.5800 F1800
G00 X4.6335 Y13.4501 Z2.0000 F1800


(No. 13: Engraving 10)
G00 X4.2875 Y12.6350 Z2.0000 F1800
G00 X4.2875 Y12.6350 Z0.5000 F1800
G01 X4.2875 Y12.6350 Z0.0000 F600
G01 X4.2875 Y12.6350 Z-0.5800 F600
G01 X5.4374 Y12.6350 Z-0.5800 F1800
G01 X5.4374 Y12.0350 Z-0.5800 F1800
G01 X4.2875 Y12.0350 Z-0.5800 F1800
G01 X4.2875 Y12.6350 Z-0.5800 F1800
G00 X4.2875 Y12.6350 Z2.0000 F1800


(No. 14: Engraving 4)
G00 X3.6754 Y10.8961 Z2.0000 F1800
G00 X3.6754 Y10.8961 Z0.5000 F1800
G01 X3.6754 Y10.8961 Z0.0000 F600
G01 X3.6754 Y10.8961 Z-0.5800 F600
G01 X0.6754 Y10.8961 Z-0.5800 F1800
G01 X0.6754 Y12.4960 Z-0.5800 F1800
G01 X3.6754 Y12.4960 Z-0.5800 F1800
G01 X3.6754 Y10.8961 Z-0.5800 F1800
G00 X3.6754 Y10.8961 Z2.0000 F1800


(No. 15: Engraving 11)
G00 X4.2875 Y10.7351 Z2.0000 F1800
G00 X4.2875 Y10.7351 Z0.5000 F1800
G01 X4.2875 Y10.7351 Z0.0000 F600
G01 X4.2875 Y10.7351 Z-0.5800 F600
G01 X5.4374 Y10.7351 Z-0.5800 F1800
G01 X5.4374 Y10.1351 Z-0.5800 F1800
G01 X4.2875 Y10.1351 Z-0.5800 F1800
G01 X4.2875 Y10.7351 Z-0.5800 F1800
G00 X4.2875 Y10.7351 Z2.0000 F1800


(No. 16: Engraving 49)
G00 X11.5580 Y11.4800 Z2.0000 F1800
G00 X11.5580 Y11.4800 Z0.5000 F1800
G01 X11.5580 Y11.4800 Z0.0000 F600
G01 X11.5580 Y11.4800 Z-0.5800 F600
G01 X10.0830 Y11.4800 Z-0.5800 F1800
G01 X10.0830 Y11.8801 Z-0.5800 F1800
G01 X11.5580 Y11.8801 Z-0.5800 F1800
G01 X11.5580 Y11.4800 Z-0.5800 F1800
G00 X11.5580 Y11.4800 Z2.0000 F1800


(No. 17: Engraving 48)
G00 X11.5580 Y12.1300 Z2.0000 F1800
G00 X11.5580 Y12.1300 Z0.5000 F1800
G01 X11.5580 Y12.1300 Z0.0000 F600
G01 X11.5580 Y12.1300 Z-0.5800 F600
G01 X10.0830 Y12.1300 Z-0.5800 F1800
G01 X10.0830 Y12.5301 Z-0.5800 F1800
G01 X11.5580 Y12.5301 Z-0.5800 F1800
G01 X11.5580 Y12.1300 Z-0.5800 F1800
G00 X11.5580 Y12.1300 Z2.0000 F1800


(No. 18: Engraving 47)
G00 X11.5580 Y12.7800 Z2.0000 F1800
G00 X11.5580 Y12.7800 Z0.5000 F1800
G01 X11.5580 Y12.7800 Z0.0000 F600
G01 X11.5580 Y12.7800 Z-0.5800 F600
G01 X10.0830 Y12.7800 Z-0.5800 F1800
G01 X10.0830 Y13.1801 Z-0.5800 F1800
G01 X11.5580 Y13.1801 Z-0.5800 F1800
G01 X11.5580 Y12.7800 Z-0.5800 F1800
G00 X11.5580 Y12.7800 Z2.0000 F1800


(No. 19: Engraving 46)
G00 X11.5580 Y13.4300 Z2.0000 F1800
G00 X11.5580 Y13.4300 Z0.5000 F1800
G01 X11.5580 Y13.4300 Z0.0000 F600
G01 X11.5580 Y13.4300 Z-0.5800 F600
G01 X10.0830 Y13.4300 Z-0.5800 F1800
G01 X10.0830 Y13.8300 Z-0.5800 F1800
G01 X11.5580 Y13.8300 Z-0.5800 F1800
G01 X11.5580 Y13.4300 Z-0.5800 F1800
G00 X11.5580 Y13.4300 Z2.0000 F1800


(No. 20: Engraving 70)
G00 X12.4579 Y15.6700 Z2.0000 F1800
G00 X12.4579 Y15.6700 Z0.5000 F1800
G01 X12.4579 Y15.6700 Z0.0000 F600
G01 X12.4579 Y15.6700 Z-0.5800 F600
G01 X13.3579 Y15.6700 Z-0.5800 F1800
G01 X13.3579 Y14.7201 Z-0.5800 F1800
G01 X12.4579 Y14.7201 Z-0.5800 F1800
G01 X12.4579 Y15.6700 Z-0.5800 F1800
G00 X12.4579 Y15.6700 Z2.0000 F1800


(No. 21: Engraving 69)
G00 X14.0081 Y15.6700 Z2.0000 F1800
G00 X14.0081 Y15.6700 Z0.5000 F1800
G01 X14.0081 Y15.6700 Z0.0000 F600
G01 X14.0081 Y15.6700 Z-0.5800 F600
G01 X14.9080 Y15.6700 Z-0.5800 F1800
G01 X14.9080 Y14.7201 Z-0.5800 F1800
G01 X14.0081 Y14.7201 Z-0.5800 F1800
G01 X14.0081 Y15.6700 Z-0.5800 F1800
G00 X14.0081 Y15.6700 Z2.0000 F1800


(No. 22: Engraving 66)
G00 X15.6710 Y17.3210 Z2.0000 F1800
G00 X15.6710 Y17.3210 Z0.5000 F1800
G01 X15.6710 Y17.3210 Z0.0000 F600
G01 X15.6710 Y17.3210 Z-0.5800 F600
G01 X15.6710 Y16.3711 Z-0.5800 F1800
G01 X14.8709 Y16.3711 Z-0.5800 F1800
G01 X14.8709 Y17.3210 Z-0.5800 F1800
G01 X15.6710 Y17.3210 Z-0.5800 F1800
G00 X15.6710 Y17.3210 Z2.0000 F1800


(No. 23: Engraving 6)
G00 X15.6710 Y18.8450 Z2.0000 F1800
G00 X15.6710 Y18.8450 Z0.5000 F1800
G01 X15.6710 Y18.8450 Z0.0000 F600
G01 X15.6710 Y18.8450 Z-0.5800 F600
G01 X15.6710 Y17.8951 Z-0.5800 F1800
G01 X14.8709 Y17.8951 Z-0.5800 F1800
G01 X14.8709 Y18.8450 Z-0.5800 F1800
G01 X15.6710 Y18.8450 Z-0.5800 F1800
G00 X15.6710 Y18.8450 Z2.0000 F1800


(No. 24: Engraving 5)
G00 X17.3210 Y18.8450 Z2.0000 F1800
G00 X17.3210 Y18.8450 Z0.5000 F1800
G01 X17.3210 Y18.8450 Z0.0000 F600
G01 X17.3210 Y18.8450 Z-0.5800 F600
G01 X17.3210 Y17.8951 Z-0.5800 F1800
G01 X16.5209 Y17.8951 Z-0.5800 F1800
G01 X16.5209 Y18.8450 Z-0.5800 F1800
G01 X17.3210 Y18.8450 Z-0.5800 F1800
G00 X17.3210 Y18.8450 Z2.0000 F1800


(No. 25: Engraving 65)
G00 X17.3210 Y17.3210 Z2.0000 F1800
G00 X17.3210 Y17.3210 Z0.5000 F1800
G01 X17.3210 Y17.3210 Z0.0000 F600
G01 X17.3210 Y17.3210 Z-0.5800 F600
G01 X17.3210 Y16.3711 Z-0.5800 F1800
G01 X16.5209 Y16.3711 Z-0.5800 F1800
G01 X16.5209 Y17.3210 Z-0.5800 F1800
G01 X17.3210 Y17.3210 Z-0.5800 F1800
G00 X17.3210 Y17.3210 Z2.0000 F1800


(No. 26: Engraving 53)
G00 X17.2829 Y13.4300 Z2.0000 F1800
G00 X17.2829 Y13.4300 Z0.5000 F1800
G01 X17.2829 Y13.4300 Z0.0000 F600
G01 X17.2829 Y13.4300 Z-0.5800 F600
G01 X15.8079 Y13.4300 Z-0.5800 F1800
G01 X15.8079 Y13.8300 Z-0.5800 F1800
G01 X17.2829 Y13.8300 Z-0.5800 F1800
G01 X17.2829 Y13.4300 Z-0.5800 F1800
G00 X17.2829 Y13.4300 Z2.0000 F1800


(No. 27: Engraving 52)
G00 X17.2829 Y12.7800 Z2.0000 F1800
G00 X17.2829 Y12.7800 Z0.5000 F1800
G01 X17.2829 Y12.7800 Z0.0000 F600
G01 X17.2829 Y12.7800 Z-0.5800 F600
G01 X15.8079 Y12.7800 Z-0.5800 F1800
G01 X15.8079 Y13.1801 Z-0.5800 F1800
G01 X17.2829 Y13.1801 Z-0.5800 F1800
G01 X17.2829 Y12.7800 Z-0.5800 F1800
G00 X17.2829 Y12.7800 Z2.0000 F1800


(No. 28: Engraving 51)
G00 X17.2829 Y12.1300 Z2.0000 F1800
G00 X17.2829 Y12.1300 Z0.5000 F1800
G01 X17.2829 Y12.1300 Z0.0000 F600
G01 X17.2829 Y12.1300 Z-0.5800 F600
G01 X15.8079 Y12.1300 Z-0.5800 F1800
G01 X15.8079 Y12.5301 Z-0.5800 F1800
G01 X17.2829 Y12.5301 Z-0.5800 F1800
G01 X17.2829 Y12.1300 Z-0.5800 F1800
G00 X17.2829 Y12.1300 Z2.0000 F1800


(No. 29: Engraving 50)
G00 X17.2829 Y11.4800 Z2.0000 F1800
G00 X17.2829 Y11.4800 Z0.5000 F1800
G01 X17.2829 Y11.4800 Z0.0000 F600
G01 X17.2829 Y11.4800 Z-0.5800 F600
G01 X15.8079 Y11.4800 Z-0.5800 F1800
G01 X15.8079 Y11.8801 Z-0.5800 F1800
G01 X17.2829 Y11.8801 Z-0.5800 F1800
G01 X17.2829 Y11.4800 Z-0.5800 F1800
G00 X17.2829 Y11.4800 Z2.0000 F1800


(No. 30: Engraving 59)
G00 X18.0599 Y11.6850 Z2.0000 F1800
G00 X18.0599 Y11.6850 Z0.5000 F1800
G01 X18.0599 Y11.6850 Z0.0000 F600
G01 X18.0599 Y11.6850 Z-0.5800 F600
G01 X19.6101 Y11.6850 Z-0.5800 F1800
G01 X19.6101 Y11.0851 Z-0.5800 F1800
G01 X18.0599 Y11.0851 Z-0.5800 F1800
G01 X18.0599 Y11.6850 Z-0.5800 F1800
G00 X18.0599 Y11.6850 Z2.0000 F1800


(No. 31: Engraving 58)
G00 X18.0599 Y12.6850 Z2.0000 F1800
G00 X18.0599 Y12.6850 Z0.5000 F1800
G01 X18.0599 Y12.6850 Z0.0000 F600
G01 X18.0599 Y12.6850 Z-0.5800 F600
G01 X19.6101 Y12.6850 Z-0.5800 F1800
G01 X19.6101 Y12.0851 Z-0.5800 F1800
G01 X18.0599 Y12.0851 Z-0.5800 F1800
G01 X18.0599 Y12.6850 Z-0.5800 F1800
G00 X18.0599 Y12.6850 Z2.0000 F1800


(No. 32: Engraving 60)
G00 X18.0599 Y10.6850 Z2.0000 F1800
G00 X18.0599 Y10.6850 Z0.5000 F1800
G01 X18.0599 Y10.6850 Z0.0000 F600
G01 X18.0599 Y10.6850 Z-0.5800 F600
G01 X19.6101 Y10.6850 Z-0.5800 F1800
G01 X19.6101 Y10.0851 Z-0.5800 F1800
G01 X18.0599 Y10.0851 Z-0.5800 F1800
G01 X18.0599 Y10.6850 Z-0.5800 F1800
G00 X18.0599 Y10.6850 Z2.0000 F1800


(No. 33: Engraving 61)
G00 X20.4600 Y9.6850 Z2.0000 F1800
G00 X20.4600 Y9.6850 Z0.5000 F1800
G01 X20.4600 Y9.6850 Z0.0000 F600
G01 X20.4600 Y9.6850 Z-0.5800 F600
G01 X22.2601 Y9.6850 Z-0.5800 F1800
G01 X22.2601 Y8.4851 Z-0.5800 F1800
G01 X20.4600 Y8.4851 Z-0.5800 F1800
G01 X20.4600 Y9.6850 Z-0.5800 F1800
G00 X20.4600 Y9.6850 Z2.0000 F1800


(No. 34: Engraving 62)
G00 X20.4600 Y14.2850 Z2.0000 F1800
G00 X20.4600 Y14.2850 Z0.5000 F1800
G01 X20.4600 Y14.2850 Z0.0000 F600
G01 X20.4600 Y14.2850 Z-0.5800 F600
G01 X22.2601 Y14.2850 Z-0.5800 F1800
G01 X22.2601 Y13.0851 Z-0.5800 F1800
G01 X20.4600 Y13.0851 Z-0.5800 F1800
G01 X20.4600 Y14.2850 Z-0.5800 F1800
G00 X20.4600 Y14.2850 Z2.0000 F1800


(No. 35: Engraving 45)
G00 X14.3200 Y20.0251 Z2.0000 F1800
G00 X14.3200 Y20.0251 Z0.5000 F1800
G01 X14.3200 Y20.0251 Z0.0000 F600
G01 X14.3200 Y20.0251 Z-0.5800 F600
G01 X14.3200 Y18.5250 Z-0.5800 F1800
G01 X13.8199 Y18.5250 Z-0.5800 F1800
G01 X13.8199 Y20.0251 Z-0.5800 F1800
G01 X14.3200 Y20.0251 Z-0.5800 F1800
G00 X14.3200 Y20.0251 Z2.0000 F1800


(No. 36: Engraving 44)
G00 X13.5199 Y20.0251 Z2.0000 F1800
G00 X13.5199 Y20.0251 Z0.5000 F1800
G01 X13.5199 Y20.0251 Z0.0000 F600
G01 X13.5199 Y20.0251 Z-0.5800 F600
G01 X13.5199 Y18.5250 Z-0.5800 F1800
G01 X13.0200 Y18.5250 Z-0.5800 F1800
G01 X13.0200 Y20.0251 Z-0.5800 F1800
G01 X13.5199 Y20.0251 Z-0.5800 F1800
G00 X13.5199 Y20.0251 Z2.0000 F1800


(No. 37: Engraving 43)
G00 X12.2199 Y20.0251 Z2.0000 F1800
G00 X12.2199 Y20.0251 Z0.5000 F1800
G01 X12.2199 Y20.0251 Z0.0000 F600
G01 X12.2199 Y20.0251 Z-0.5800 F600
G01 X12.7201 Y20.0251 Z-0.5800 F1800
G01 X12.7201 Y18.5250 Z-0.5800 F1800
G01 X12.2199 Y18.5250 Z-0.5800 F1800
G01 X12.2199 Y20.0251 Z-0.5800 F1800
G00 X12.2199 Y20.0251 Z2.0000 F1800


(No. 38: Engraving 42)
G00 X11.9200 Y20.0251 Z2.0000 F1800
G00 X11.9200 Y20.0251 Z0.5000 F1800
G01 X11.9200 Y20.0251 Z0.0000 F600
G01 X11.9200 Y20.0251 Z-0.5800 F600
G01 X11.9200 Y18.5250 Z-0.5800 F1800
G01 X11.4201 Y18.5250 Z-0.5800 F1800
G01 X11.4201 Y20.0251 Z-0.5800 F1800
G01 X11.9200 Y20.0251 Z-0.5800 F1800
G00 X11.9200 Y20.0251 Z2.0000 F1800


(No. 39: Engraving 41)
G00 X11.1199 Y20.0251 Z2.0000 F1800
G00 X11.1199 Y20.0251 Z0.5000 F1800
G01 X11.1199 Y20.0251 Z0.0000 F600
G01 X11.1199 Y20.0251 Z-0.5800 F600
G01 X11.1199 Y18.5250 Z-0.5800 F1800
G01 X10.6200 Y18.5250 Z-0.5800 F1800
G01 X10.6200 Y20.0251 Z-0.5800 F1800
G01 X11.1199 Y20.0251 Z-0.5800 F1800
G00 X11.1199 Y20.0251 Z2.0000 F1800


(No. 40: Engraving 40)
G00 X10.3200 Y20.0251 Z2.0000 F1800
G00 X10.3200 Y20.0251 Z0.5000 F1800
G01 X10.3200 Y20.0251 Z0.0000 F600
G01 X10.3200 Y20.0251 Z-0.5800 F600
G01 X10.3200 Y18.5250 Z-0.5800 F1800
G01 X9.8199 Y18.5250 Z-0.5800 F1800
G01 X9.8199 Y20.0251 Z-0.5800 F1800
G01 X10.3200 Y20.0251 Z-0.5800 F1800
G00 X10.3200 Y20.0251 Z2.0000 F1800


(No. 41: Engraving 39)
G00 X9.5199 Y20.0251 Z2.0000 F1800
G00 X9.5199 Y20.0251 Z0.5000 F1800
G01 X9.5199 Y20.0251 Z0.0000 F600
G01 X9.5199 Y20.0251 Z-0.5800 F600
G01 X9.5199 Y18.5250 Z-0.5800 F1800
G01 X9.0200 Y18.5250 Z-0.5800 F1800
G01 X9.0200 Y20.0251 Z-0.5800 F1800
G01 X9.5199 Y20.0251 Z-0.5800 F1800
G00 X9.5199 Y20.0251 Z2.0000 F1800


(No. 42: Engraving 38)
G00 X8.2199 Y20.0251 Z2.0000 F1800
G00 X8.2199 Y20.0251 Z0.5000 F1800
G01 X8.2199 Y20.0251 Z0.0000 F600
G01 X8.2199 Y20.0251 Z-0.5800 F600
G01 X8.7201 Y20.0251 Z-0.5800 F1800
G01 X8.7201 Y18.5250 Z-0.5800 F1800
G01 X8.2199 Y18.5250 Z-0.5800 F1800
G01 X8.2199 Y20.0251 Z-0.5800 F1800
G00 X8.2199 Y20.0251 Z2.0000 F1800


(No. 43: Engraving 37)
G00 X6.3449 Y20.9001 Z2.0000 F1800
G00 X6.3449 Y20.9001 Z0.5000 F1800
G01 X6.3449 Y20.9001 Z0.0000 F600
G01 X6.3449 Y20.9001 Z-0.5800 F600
G01 X7.8450 Y20.9001 Z-0.5800 F1800
G01 X7.8450 Y20.4000 Z-0.5800 F1800
G01 X6.3449 Y20.4000 Z-0.5800 F1800
G01 X6.3449 Y20.9001 Z-0.5800 F1800
G00 X6.3449 Y20.9001 Z2.0000 F1800


(No. 44: Engraving 36)
G00 X6.3449 Y21.7000 Z2.0000 F1800
G00 X6.3449 Y21.7000 Z0.5000 F1800
G01 X6.3449 Y21.7000 Z0.0000 F600
G01 X6.3449 Y21.7000 Z-0.5800 F600
G01 X7.8450 Y21.7000 Z-0.5800 F1800
G01 X7.8450 Y21.2001 Z-0.5800 F1800
G01 X6.3449 Y21.2001 Z-0.5800 F1800
G01 X6.3449 Y21.7000 Z-0.5800 F1800
G00 X6.3449 Y21.7000 Z2.0000 F1800


(No. 45: Engraving 35)
G00 X6.3449 Y22.5001 Z2.0000 F1800
G00 X6.3449 Y22.5001 Z0.5000 F1800
G01 X6.3449 Y22.5001 Z0.0000 F600
G01 X6.3449 Y22.5001 Z-0.5800 F600
G01 X7.8450 Y22.5001 Z-0.5800 F1800
G01 X7.8450 Y22.0000 Z-0.5800 F1800
G01 X6.3449 Y22.0000 Z-0.5800 F1800
G01 X6.3449 Y22.5001 Z-0.5800 F1800
G00 X6.3449 Y22.5001 Z2.0000 F1800


(No. 46: Engraving 34)
G00 X6.3449 Y23.2999 Z2.0000 F1800
G00 X6.3449 Y23.2999 Z0.5000 F1800
G01 X6.3449 Y23.2999 Z0.0000 F600
G01 X6.3449 Y23.2999 Z-0.5800 F600
G01 X7.8450 Y23.2999 Z-0.5800 F1800
G01 X7.8450 Y22.8001 Z-0.5800 F1800
G01 X6.3449 Y22.8001 Z-0.5800 F1800
G01 X6.3449 Y23.2999 Z-0.5800 F1800
G00 X6.3449 Y23.2999 Z2.0000 F1800


(No. 47: Engraving 33)
G00 X6.3449 Y24.1000 Z2.0000 F1800
G00 X6.3449 Y24.1000 Z0.5000 F1800
G01 X6.3449 Y24.1000 Z0.0000 F600
G01 X6.3449 Y24.1000 Z-0.5800 F600
G01 X7.8450 Y24.1000 Z-0.5800 F1800
G01 X7.8450 Y23.6002 Z-0.5800 F1800
G01 X6.3449 Y23.6002 Z-0.5800 F1800
G01 X6.3449 Y24.1000 Z-0.5800 F1800
G00 X6.3449 Y24.1000 Z2.0000 F1800


(No. 48: Engraving 32)
G00 X6.3449 Y24.9001 Z2.0000 F1800
G00 X6.3449 Y24.9001 Z0.5000 F1800
G01 X6.3449 Y24.9001 Z0.0000 F600
G01 X6.3449 Y24.9001 Z-0.5800 F600
G01 X7.8450 Y24.9001 Z-0.5800 F1800
G01 X7.8450 Y24.4000 Z-0.5800 F1800
G01 X6.3449 Y24.4000 Z-0.5800 F1800
G01 X6.3449 Y24.9001 Z-0.5800 F1800
G00 X6.3449 Y24.9001 Z2.0000 F1800


(No. 49: Engraving 31)
G00 X6.3449 Y25.7000 Z2.0000 F1800
G00 X6.3449 Y25.7000 Z0.5000 F1800
G01 X6.3449 Y25.7000 Z0.0000 F600
G01 X6.3449 Y25.7000 Z-0.5800 F600
G01 X7.8450 Y25.7000 Z-0.5800 F1800
G01 X7.8450 Y25.2001 Z-0.5800 F1800
G01 X6.3449 Y25.2001 Z-0.5800 F1800
G01 X6.3449 Y25.7000 Z-0.5800 F1800
G00 X6.3449 Y25.7000 Z2.0000 F1800


(No. 50: Engraving 30)
G00 X6.3449 Y26.5001 Z2.0000 F1800
G00 X6.3449 Y26.5001 Z0.5000 F1800
G01 X6.3449 Y26.5001 Z0.0000 F600
G01 X6.3449 Y26.5001 Z-0.5800 F600
G01 X7.8450 Y26.5001 Z-0.5800 F1800
G01 X7.8450 Y25.9999 Z-0.5800 F1800
G01 X6.3449 Y25.9999 Z-0.5800 F1800
G01 X6.3449 Y26.5001 Z-0.5800 F1800
G00 X6.3449 Y26.5001 Z2.0000 F1800


(No. 51: Engraving 29)
G00 X8.2199 Y28.3751 Z2.0000 F1800
G00 X8.2199 Y28.3751 Z0.5000 F1800
G01 X8.2199 Y28.3751 Z0.0000 F600
G01 X8.2199 Y28.3751 Z-0.5800 F600
G01 X8.7201 Y28.3751 Z-0.5800 F1800
G01 X8.7201 Y26.8750 Z-0.5800 F1800
G01 X8.2199 Y26.8750 Z-0.5800 F1800
G01 X8.2199 Y28.3751 Z-0.5800 F1800
G00 X8.2199 Y28.3751 Z2.0000 F1800


(No. 52: Engraving 28)
G00 X9.5199 Y28.3751 Z2.0000 F1800
G00 X9.5199 Y28.3751 Z0.5000 F1800
G01 X9.5199 Y28.3751 Z0.0000 F600
G01 X9.5199 Y28.3751 Z-0.5800 F600
G01 X9.5199 Y26.8750 Z-0.5800 F1800
G01 X9.0200 Y26.8750 Z-0.5800 F1800
G01 X9.0200 Y28.3751 Z-0.5800 F1800
G01 X9.5199 Y28.3751 Z-0.5800 F1800
G00 X9.5199 Y28.3751 Z2.0000 F1800


(No. 53: Engraving 27)
G00 X10.3200 Y28.3751 Z2.0000 F1800
G00 X10.3200 Y28.3751 Z0.5000 F1800
G01 X10.3200 Y28.3751 Z0.0000 F600
G01 X10.3200 Y28.3751 Z-0.5800 F600
G01 X10.3200 Y26.8750 Z-0.5800 F1800
G01 X9.8199 Y26.8750 Z-0.5800 F1800
G01 X9.8199 Y28.3751 Z-0.5800 F1800
G01 X10.3200 Y28.3751 Z-0.5800 F1800
G00 X10.3200 Y28.3751 Z2.0000 F1800


(No. 54: Engraving 26)
G00 X11.1199 Y28.3751 Z2.0000 F1800
G00 X11.1199 Y28.3751 Z0.5000 F1800
G01 X11.1199 Y28.3751 Z0.0000 F600
G01 X11.1199 Y28.3751 Z-0.5800 F600
G01 X11.1199 Y26.8750 Z-0.5800 F1800
G01 X10.6200 Y26.8750 Z-0.5800 F1800
G01 X10.6200 Y28.3751 Z-0.5800 F1800
G01 X11.1199 Y28.3751 Z-0.5800 F1800
G00 X11.1199 Y28.3751 Z2.0000 F1800


(No. 55: Engraving 25)
G00 X11.9200 Y28.3751 Z2.0000 F1800
G00 X11.9200 Y28.3751 Z0.5000 F1800
G01 X11.9200 Y28.3751 Z0.0000 F600
G01 X11.9200 Y28.3751 Z-0.5800 F600
G01 X11.9200 Y26.8750 Z-0.5800 F1800
G01 X11.4201 Y26.8750 Z-0.5800 F1800
G01 X11.4201 Y28.3751 Z-0.5800 F1800
G01 X11.9200 Y28.3751 Z-0.5800 F1800
G00 X11.9200 Y28.3751 Z2.0000 F1800


(No. 56: Engraving 24)
G00 X12.2199 Y28.3751 Z2.0000 F1800
G00 X12.2199 Y28.3751 Z0.5000 F1800
G01 X12.2199 Y28.3751 Z0.0000 F600
G01 X12.2199 Y28.3751 Z-0.5800 F600
G01 X12.7201 Y28.3751 Z-0.5800 F1800
G01 X12.7201 Y26.8750 Z-0.5800 F1800
G01 X12.2199 Y26.8750 Z-0.5800 F1800
G01 X12.2199 Y28.3751 Z-0.5800 F1800
G00 X12.2199 Y28.3751 Z2.0000 F1800


(No. 57: Engraving 23)
G00 X13.5199 Y28.3751 Z2.0000 F1800
G00 X13.5199 Y28.3751 Z0.5000 F1800
G01 X13.5199 Y28.3751 Z0.0000 F600
G01 X13.5199 Y28.3751 Z-0.5800 F600
G01 X13.5199 Y26.8750 Z-0.5800 F1800
G01 X13.0200 Y26.8750 Z-0.5800 F1800
G01 X13.0200 Y28.3751 Z-0.5800 F1800
G01 X13.5199 Y28.3751 Z-0.5800 F1800
G00 X13.5199 Y28.3751 Z2.0000 F1800


(No. 58: Engraving 22)
G00 X14.3200 Y28.3751 Z2.0000 F1800
G00 X14.3200 Y28.3751 Z0.5000 F1800
G01 X14.3200 Y28.3751 Z0.0000 F600
G01 X14.3200 Y28.3751 Z-0.5800 F600
G01 X14.3200 Y26.8750 Z-0.5800 F1800
G01 X13.8199 Y26.8750 Z-0.5800 F1800
G01 X13.8199 Y28.3751 Z-0.5800 F1800
G01 X14.3200 Y28.3751 Z-0.5800 F1800
G00 X14.3200 Y28.3751 Z2.0000 F1800


(No. 59: Engraving 21)
G00 X16.1950 Y26.5001 Z2.0000 F1800
G00 X16.1950 Y26.5001 Z0.5000 F1800
G01 X16.1950 Y26.5001 Z0.0000 F600
G01 X16.1950 Y26.5001 Z-0.5800 F600
G01 X16.1950 Y25.9999 Z-0.5800 F1800
G01 X14.6949 Y25.9999 Z-0.5800 F1800
G01 X14.6949 Y26.5001 Z-0.5800 F1800
G01 X16.1950 Y26.5001 Z-0.5800 F1800
G00 X16.1950 Y26.5001 Z2.0000 F1800


(No. 60: Engraving 20)
G00 X14.6949 Y25.7000 Z2.0000 F1800
G00 X14.6949 Y25.7000 Z0.5000 F1800
G01 X14.6949 Y25.7000 Z0.0000 F600
G01 X14.6949 Y25.7000 Z-0.5800 F600
G01 X16.1950 Y25.7000 Z-0.5800 F1800
G01 X16.1950 Y25.2001 Z-0.5800 F1800
G01 X14.6949 Y25.2001 Z-0.5800 F1800
G01 X14.6949 Y25.7000 Z-0.5800 F1800
G00 X14.6949 Y25.7000 Z2.0000 F1800


(No. 61: Engraving 19)
G00 X14.6949 Y24.9001 Z2.0000 F1800
G00 X14.6949 Y24.9001 Z0.5000 F1800
G01 X14.6949 Y24.9001 Z0.0000 F600
G01 X14.6949 Y24.9001 Z-0.5800 F600
G01 X16.1950 Y24.9001 Z-0.5800 F1800
G01 X16.1950 Y24.4000 Z-0.5800 F1800
G01 X14.6949 Y24.4000 Z-0.5800 F1800
G01 X14.6949 Y24.9001 Z-0.5800 F1800
G00 X14.6949 Y24.9001 Z2.0000 F1800


(No. 62: Engraving 18)
G00 X14.6949 Y24.1000 Z2.0000 F1800
G00 X14.6949 Y24.1000 Z0.5000 F1800
G01 X14.6949 Y24.1000 Z0.0000 F600
G01 X14.6949 Y24.1000 Z-0.5800 F600
G01 X16.1950 Y24.1000 Z-0.5800 F1800
G01 X16.1950 Y23.6002 Z-0.5800 F1800
G01 X14.6949 Y23.6002 Z-0.5800 F1800
G01 X14.6949 Y24.1000 Z-0.5800 F1800
G00 X14.6949 Y24.1000 Z2.0000 F1800


(No. 63: Engraving 17)
G00 X14.6949 Y23.2999 Z2.0000 F1800
G00 X14.6949 Y23.2999 Z0.5000 F1800
G01 X14.6949 Y23.2999 Z0.0000 F600
G01 X14.6949 Y23.2999 Z-0.5800 F600
G01 X16.1950 Y23.2999 Z-0.5800 F1800
G01 X16.1950 Y22.8001 Z-0.5800 F1800
G01 X14.6949 Y22.8001 Z-0.5800 F1800
G01 X14.6949 Y23.2999 Z-0.5800 F1800
G00 X14.6949 Y23.2999 Z2.0000 F1800


(No. 64: Engraving 16)
G00 X14.6949 Y22.5001 Z2.0000 F1800
G00 X14.6949 Y22.5001 Z0.5000 F1800
G01 X14.6949 Y22.5001 Z0.0000 F600
G01 X14.6949 Y22.5001 Z-0.5800 F600
G01 X16.1950 Y22.5001 Z-0.5800 F1800
G01 X16.1950 Y22.0000 Z-0.5800 F1800
G01 X14.6949 Y22.0000 Z-0.5800 F1800
G01 X14.6949 Y22.5001 Z-0.5800 F1800
G00 X14.6949 Y22.5001 Z2.0000 F1800


(No. 65: Engraving 15)
G00 X14.6949 Y21.7000 Z2.0000 F1800
G00 X14.6949 Y21.7000 Z0.5000 F1800
G01 X14.6949 Y21.7000 Z0.0000 F600
G01 X14.6949 Y21.7000 Z-0.5800 F600
G01 X16.1950 Y21.7000 Z-0.5800 F1800
G01 X16.1950 Y21.2001 Z-0.5800 F1800
G01 X14.6949 Y21.2001 Z-0.5800 F1800
G01 X14.6949 Y21.7000 Z-0.5800 F1800
G00 X14.6949 Y21.7000 Z2.0000 F1800


(No. 66: Engraving 14)
G00 X14.6949 Y20.9001 Z2.0000 F1800
G00 X14.6949 Y20.9001 Z0.5000 F1800
G01 X14.6949 Y20.9001 Z0.0000 F600
G01 X14.6949 Y20.9001 Z-0.5800 F600
G01 X16.1950 Y20.9001 Z-0.5800 F1800
G01 X16.1950 Y20.4000 Z-0.5800 F1800
G01 X14.6949 Y20.4000 Z-0.5800 F1800
G01 X14.6949 Y20.9001 Z-0.5800 F1800
G00 X14.6949 Y20.9001 Z2.0000 F1800


(No. 67: Engraving 67)
G00 X7.3000 Y29.9720 Z2.0000 F1800
G00 X7.3000 Y29.9720 Z0.5000 F1800
G01 X7.3000 Y29.9720 Z0.0000 F600
G01 X7.3000 Y29.9720 Z-0.5800 F600
G01 X6.3500 Y29.9720 Z-0.5800 F1800
G01 X6.3500 Y30.8719 Z-0.5800 F1800
G01 X7.3000 Y30.8719 Z-0.5800 F1800
G01 X7.3000 Y29.9720 Z-0.5800 F1800
G00 X7.3000 Y29.9720 Z2.0000 F1800


(No. 68: Engraving 68)
G00 X7.3000 Y31.5222 Z2.0000 F1800
G00 X7.3000 Y31.5222 Z0.5000 F1800
G01 X7.3000 Y31.5222 Z0.0000 F600
G01 X7.3000 Y31.5222 Z-0.5800 F600
G01 X6.3500 Y31.5222 Z-0.5800 F1800
G01 X6.3500 Y32.4221 Z-0.5800 F1800
G01 X7.3000 Y32.4221 Z-0.5800 F1800
G01 X7.3000 Y31.5222 Z-0.5800 F1800
G00 X7.3000 Y31.5222 Z2.0000 F1800


(No. 69: Engraving 72)
G00 X21.2700 Y4.5982 Z2.0000 F1800
G00 X21.2700 Y4.5982 Z0.5000 F1800
G01 X21.2700 Y4.5982 Z0.0000 F600
G01 X21.2700 Y4.5982 Z-0.5800 F600
G01 X20.3200 Y4.5982 Z-0.5800 F1800
G01 X20.3200 Y5.4981 Z-0.5800 F1800
G01 X21.2700 Y5.4981 Z-0.5800 F1800
G01 X21.2700 Y4.5982 Z-0.5800 F1800
G00 X21.2700 Y4.5982 Z2.0000 F1800


(No. 70: Engraving 71)
G00 X21.2700 Y3.9479 Z2.0000 F1800
G00 X21.2700 Y3.9479 Z0.5000 F1800
G01 X21.2700 Y3.9479 Z0.0000 F600
G01 X21.2700 Y3.9479 Z-0.5800 F600
G01 X21.2700 Y3.0480 Z-0.5800 F1800
G01 X20.3200 Y3.0480 Z-0.5800 F1800
G01 X20.3200 Y3.9479 Z-0.5800 F1800
G01 X21.2700 Y3.9479 Z-0.5800 F1800
G00 X21.2700 Y3.9479 Z2.0000 F1800


(No. 71: Engraving 54)
G00 X20.3200 Y1.5502 Z2.0000 F1800
G00 X20.3200 Y1.5502 Z0.5000 F1800
G01 X20.3200 Y1.5502 Z0.0000 F600
G01 X20.3200 Y1.5502 Z-0.5800 F600
G01 X20.3200 Y2.4501 Z-0.5800 F1800
G01 X21.2700 Y2.4501 Z-0.5800 F1800
G01 X21.2700 Y1.5502 Z-0.5800 F1800
G01 X20.3200 Y1.5502 Z-0.5800 F1800
G00 X20.3200 Y1.5502 Z2.0000 F1800


(No. 72: Engraving 55)
G00 X20.3200 Y0.8999 Z2.0000 F1800
G00 X20.3200 Y0.8999 Z0.5000 F1800
G01 X20.3200 Y0.8999 Z0.0000 F600
G01 X20.3200 Y0.8999 Z-0.5800 F600
G01 X21.2700 Y0.8999 Z-0.5800 F1800
G01 X21.2700 Y0.0000 Z-0.5800 F1800
G01 X20.3200 Y0.0000 Z-0.5800 F1800
G01 X20.3200 Y0.8999 Z-0.5800 F1800
G00 X20.3200 Y0.8999 Z2.0000 F1800
G00 X0.0000 Y0.0000 Z2.0000 F1800

M05
M30
